src/assets/icons/letters,simple,serif-a.svg

<svg width="48" height="48" viewBox="0 0 48 48" fill="none" xmlns="http://www.w3.org/2000/svg">
<rect opacity="0.2" x="5" y="5" width="38" height="38" rx="4" fill="black"/>
<path d="M26.9011 29.01H18.4111C17.4711 31.13 17.0011 32.6 17.0011 33.42C17.0011 34.02 17.2211 34.4 17.6611 34.56C18.1211 34.72 18.8011 34.8 19.7011 34.8V36H11.4811V34.8C11.9611 34.74 12.3711 34.66 12.7111 34.56C13.0711 34.46 13.3811 34.32 13.6411 34.14C13.9211 33.96 14.1611 33.73 14.3611 33.45C14.5611 33.15 14.7511 32.79 14.9311 32.37L22.8211 12.6H25.0411L32.2111 30.12C32.6311 31.14 32.9811 31.94 33.2611 32.52C33.5611 33.1 33.8711 33.55 34.1911 33.87C34.5311 34.17 34.9111 34.38 35.3311 34.5C35.7711 34.62 36.3311 34.71 37.0111 34.77V36H25.6711V34.77C26.6311 34.73 27.3211 34.63 27.7411 34.47C28.1611 34.31 28.3711 33.99 28.3711 33.51C28.3711 33.23 28.3011 32.87 28.1611 32.43C28.0211 31.99 27.8311 31.45 27.5911 30.81L26.9011 29.01ZM19.1011 27.21H26.2411L22.7911 18.12H22.6711L19.1011 27.21Z" fill="black"/>
</svg>

<svg xmlns="http://www.w3.org/2000/svg" width="48" height="48" fill="none" viewBox="0 0 48 48">
  <rect width="38" height="38" x="5" y="5" fill="#000" opacity=".2" rx="4"/>
  <path fill="#000" d="M26.901 29.01h-8.49c-.94 2.12-1.41 3.59-1.41 4.41 0 .6.22.98.66 1.14.46.16 1.14.24 2.04.24V36h-8.22v-1.2c.48-.06.89-.14 1.23-.24.36-.1.67-.24.93-.42.28-.18.52-.41.72-.69.2-.3.39-.66.57-1.08l7.89-19.77h2.22l7.17 17.52c.42 1.02.77 1.82 1.05 2.4.3.58.61 1.03.93 1.35.34.3.72.51 1.14.63.44.12 1 .21 1.68.27V36h-11.34v-1.23c.96-.04 1.65-.14 2.07-.3.42-.16.63-.48.63-.96 0-.28-.07-.64-.21-1.08-.14-.44-.33-.98-.57-1.62l-.69-1.8zm-7.8-1.8h7.14l-3.45-9.09h-.12l-3.57 9.09z"/>
</svg>
